X:1
T:Loving Jesus Christ
T:Loving Jesus Christ
T:Ira Bishop Wilson
T:John Tilden Latta, 1906
T:Public Domain Courtesy of the Cyber Hymnal™
C:Ira Bishop Wilson
Z:Public Domain
Z:Courtesy of the Cyber Hymnal™
%%score ( 1 2 ) ( 3 4 )
L:1/8
Q:1/4=100
M:6/8
K:F
V:1 treble 
V:2 treble 
V:3 bass 
V:4 bass 
V:1
 [FA]2 [FA] [FA]2 [FG] | (FA)[Fd] [Fc]3 | [FA]2 F [FA]2 [EG] | F3- F2 z | [FA]2 [FA] [FA]2 [FG] | %5
w: 1.~What can make it|joy * to live?|Lov- ing Je- sus|Christ; *|What can bound- less|
w: 2.~What can pur- i-|fy * the heart?|Lov- ing Je- sus|Christ; *|What can hope and|
w: 3.~What can drive a-|way * my care?|Lov- ing Je- sus|Christ; *|What can ban- ish|
w: 4.~What can quench my|self- * ish- ness?|Lov- ing Je- sus|Christ; *|What can bring me|
w: 5.~What can guide my|foot- * steps right?|Lov- ing Je- sus|Christ; *|What can make my|
 (FA)[Fd] [Fc]3 | [FA]2 F [FA]2 [EG] | F3- F2 z ||"^Refrain" c3 c3 | [Gc]2 [FA] [Fc]2 z | d3 d3 | %11
w: com- * fort give?|Lov- ing Je- sus|Christ. *||||
w: trust * im- part?|Lov- ing Je- sus|Christ. *||||
w: my * des- pair?|Lov- ing Je- sus|Christ. *|Lov- ing|Je- sus Christ,|Lov- ing|
w: hap- * pi- ness?|Lov- ing Je- sus|Christ. *||||
w: path- * way bright?|Lov- ing Je- sus|Christ. *||||
 [Ee]2 [Fd] ([Ec]2 B) | [FA]2 [FA] [FA]2 [FG] | (FA)[Fd] [Fc]3 | [FA]2 F [FA]2 [EG] | F3- F2 z |] %16
w: |||||
w: |||||
w: Je- sus Christ; *|What can make my|path- * way bright?|Lov- ing Je- sus|Christ. *|
w: |||||
w: |||||
V:2
 x6 | F2 x4 | x2 F x3 | F3- F2 x | x6 | F2 x4 | x2 F x3 | F3- F2 x || (F2 F) (EFG) | x6 | %10
 (^F2 F) (G2 =F) | x6 | x6 | F2 x4 | x2 F x3 | F3- F2 x |] %16
V:3
 [F,C]2 [F,C] [F,C]2 [F,B,] | (A,C)[F,B,] [F,A,]3 | [C,C]2 [C,A,] [C,C]2 [C,B,] | %3
w: ~ ~ ~ ~|~ * ~ ~|~ ~ ~ ~|
 [F,A,]3- [F,A,]2 z | [F,C]2 [F,C] [F,C]2 [F,B,] | (A,C)[F,B,] [F,A,]3 | %6
w: ~ *|~ ~ ~ ~|~ * ~ ~|
 [C,C]2 [C,A,] [C,C]2 [C,B,] | [F,A,]3- [F,A,]2 z || [F,A,]2 [F,A,] (G,A,)[C,B,] | %9
w: ~ ~ ~ ~|~ *|On- ly lov- * ing|
 [F,A,]2 [F,C] [F,A,]2 z | [D,A,]2 [D,A,] [G,B,]2 [G,=B,] | [G,C]2 [G,=B,] [C,C]2 z | %12
w: Je- sus Christ,|On- ly lov- ing|Je- sus Christ;|
 [F,C]2 [F,C] [F,C]2 [F,B,] | (A,C)[F,B,] [F,A,]3 | [C,C]2 [C,A,] [C,C]2 [C,B,] | %15
w: |||
 [F,A,]3- [F,A,]2 z |] %16
w: |
V:4
 x6 | F,2 x4 | x6 | x6 | x6 | F,2 x4 | x6 | x6 || x3 C,2 x | x6 | x6 | x6 | x6 | F,2 x4 | x6 | %15
 x6 |] %16

